bernoullicharts/exp_-x_alt_series__bound.svg

<?xml version="1.0" encoding="utf-8" standalone="no"?>
<!DOCTYPE svg PUBLIC "-//W3C//DTD SVG 1.1//EN"
  "http://www.w3.org/Graphics/SVG/1.1/DTD/svg11.dtd">
<!-- Created with matplotlib (https://matplotlib.org/) -->
<svg height="345.6pt" version="1.1" viewBox="0 0 460.8 345.6" width="460.8pt" xmlns="http://www.w3.org/2000/svg" xmlns:xlink="http://www.w3.org/1999/xlink">
 <defs>
  <style type="text/css">
*{stroke-linecap:butt;stroke-linejoin:round;}
  </style>
 </defs>
 <g id="figure_1">
  <g id="patch_1">
   <path d="M 0 345.6 
L 460.8 345.6 
L 460.8 0 
L 0 0 
z
" style="fill:#ffffff;"/>
  </g>
  <g id="axes_1">
   <g id="patch_2">
    <path d="M 57.6 307.584 
L 414.72 307.584 
L 414.72 41.472 
L 57.6 41.472 
z
" style="fill:#ffffff;"/>
   </g>
   <g id="matplotlib.axis_1">
    <g id="xtick_1">
     <g id="line2d_1">
      <defs>
       <path d="M 0 0 
L 0 3.5 
" id="m19db7be73c" style="stroke:#000000;stroke-width:0.8;"/>
      </defs>
      <g>
       <use style="stroke:#000000;stroke-width:0.8;" x="73.800255" xlink:href="#m19db7be73c" y="307.584"/>
      </g>
     </g>
     <g id="text_1">
      <text style="font-family:DejaVu Sans;font-size:10px;font-style:normal;font-weight:normal;text-anchor:middle;" transform="rotate(-0, 73.800255, 322.182437)" x="73.800255" y="322.182437">0.0</text>
     </g>
    </g>
    <g id="xtick_2">
     <g id="line2d_2">
      <g>
       <use style="stroke:#000000;stroke-width:0.8;" x="138.744153" xlink:href="#m19db7be73c" y="307.584"/>
      </g>
     </g>
     <g id="text_2">
      <text style="font-family:DejaVu Sans;font-size:10px;font-style:normal;font-weight:normal;text-anchor:middle;" transform="rotate(-0, 138.744153, 322.182437)" x="138.744153" y="322.182437">0.2</text>
     </g>
    </g>
    <g id="xtick_3">
     <g id="line2d_3">
      <g>
       <use style="stroke:#000000;stroke-width:0.8;" x="203.688051" xlink:href="#m19db7be73c" y="307.584"/>
      </g>
     </g>
     <g id="text_3">
      <text style="font-family:DejaVu Sans;font-size:10px;font-style:normal;font-weight:normal;text-anchor:middle;" transform="rotate(-0, 203.688051, 322.182437)" x="203.688051" y="322.182437">0.4</text>
     </g>
    </g>
    <g id="xtick_4">
     <g id="line2d_4">
      <g>
       <use style="stroke:#000000;stroke-width:0.8;" x="268.631949" xlink:href="#m19db7be73c" y="307.584"/>
      </g>
     </g>
     <g id="text_4">
      <text style="font-family:DejaVu Sans;font-size:10px;font-style:normal;font-weight:normal;text-anchor:middle;" transform="rotate(-0, 268.631949, 322.182437)" x="268.631949" y="322.182437">0.6</text>
     </g>
    </g>
    <g id="xtick_5">
     <g id="line2d_5">
      <g>
       <use style="stroke:#000000;stroke-width:0.8;" x="333.575847" xlink:href="#m19db7be73c" y="307.584"/>
      </g>
     </g>
     <g id="text_5">
      <text style="font-family:DejaVu Sans;font-size:10px;font-style:normal;font-weight:normal;text-anchor:middle;" transform="rotate(-0, 333.575847, 322.182437)" x="333.575847" y="322.182437">0.8</text>
     </g>
    </g>
    <g id="xtick_6">
     <g id="line2d_6">
      <g>
       <use style="stroke:#000000;stroke-width:0.8;" x="398.519745" xlink:href="#m19db7be73c" y="307.584"/>
      </g>
     </g>
     <g id="text_6">
      <text style="font-family:DejaVu Sans;font-size:10px;font-style:normal;font-weight:normal;text-anchor:middle;" transform="rotate(-0, 398.519745, 322.182437)" x="398.519745" y="322.182437">1.0</text>
     </g>
    </g>
    <g id="text_7">
     <text style="font-family:DejaVu Sans;font-size:10px;font-style:normal;font-weight:normal;text-anchor:middle;" transform="rotate(-0, 236.16, 335.860562)" x="236.16" y="335.860562">Input Coin's Heads Probability (λ)</text>
    </g>
   </g>
   <g id="matplotlib.axis_2">
    <g id="ytick_1">
     <g id="line2d_7">
      <defs>
       <path d="M 0 0 
L -3.5 0 
" id="m6ab9852cf1" style="stroke:#000000;stroke-width:0.8;"/>
      </defs>
      <g>
       <use style="stroke:#000000;stroke-width:0.8;" x="57.6" xlink:href="#m6ab9852cf1" y="295.493238"/>
      </g>
     </g>
     <g id="text_8">
      <text style="font-family:DejaVu Sans;font-size:10px;font-style:normal;font-weight:normal;text-anchor:end;" transform="rotate(-0, 50.6, 299.292457)" x="50.6" y="299.292457">0.0</text>
     </g>
    </g>
    <g id="ytick_2">
     <g id="line2d_8">
      <g>
       <use style="stroke:#000000;stroke-width:0.8;" x="57.6" xlink:href="#m6ab9852cf1" y="250.492264"/>
      </g>
     </g>
     <g id="text_9">
      <text style="font-family:DejaVu Sans;font-size:10px;font-style:normal;font-weight:normal;text-anchor:end;" transform="rotate(-0, 50.6, 254.291483)" x="50.6" y="254.291483">0.5</text>
     </g>
    </g>
    <g id="ytick_3">
     <g id="line2d_9">
      <g>
       <use style="stroke:#000000;stroke-width:0.8;" x="57.6" xlink:href="#m6ab9852cf1" y="205.491289"/>
      </g>
     </g>
     <g id="text_10">
      <text style="font-family:DejaVu Sans;font-size:10px;font-style:normal;font-weight:normal;text-anchor:end;" transform="rotate(-0, 50.6, 209.290508)" x="50.6" y="209.290508">1.0</text>
     </g>
    </g>
    <g id="ytick_4">
     <g id="line2d_10">
      <g>
       <use style="stroke:#000000;stroke-width:0.8;" x="57.6" xlink:href="#m6ab9852cf1" y="160.490315"/>
      </g>
     </g>
     <g id="text_11">
      <text style="font-family:DejaVu Sans;font-size:10px;font-style:normal;font-weight:normal;text-anchor:end;" transform="rotate(-0, 50.6, 164.289534)" x="50.6" y="164.289534">1.5</text>
     </g>
    </g>
    <g id="ytick_5">
     <g id="line2d_11">
      <g>
       <use style="stroke:#000000;stroke-width:0.8;" x="57.6" xlink:href="#m6ab9852cf1" y="115.489341"/>
      </g>
     </g>
     <g id="text_12">
      <text style="font-family:DejaVu Sans;font-size:10px;font-style:normal;font-weight:normal;text-anchor:end;" transform="rotate(-0, 50.6, 119.288559)" x="50.6" y="119.288559">2.0</text>
     </g>
    </g>
    <g id="ytick_6">
     <g id="line2d_12">
      <g>
       <use style="stroke:#000000;stroke-width:0.8;" x="57.6" xlink:href="#m6ab9852cf1" y="70.488366"/>
      </g>
     </g>
     <g id="text_13">
      <text style="font-family:DejaVu Sans;font-size:10px;font-style:normal;font-weight:normal;text-anchor:end;" transform="rotate(-0, 50.6, 74.287585)" x="50.6" y="74.287585">2.5</text>
     </g>
    </g>
    <g id="text_14">
     <text style="font-family:DejaVu Sans;font-size:10px;font-style:normal;font-weight:normal;text-anchor:middle;" transform="rotate(-90, 28.617187, 174.528)" x="28.617187" y="174.528">Coin Flips Needed</text>
    </g>
   </g>
   <g id="line2d_13">
    <path clip-path="url(#pcdaf9ef18d)" d="M 73.832727 205.504789 
L 77.112066 206.862729 
L 80.391405 208.210008 
L 83.670744 209.54667 
L 86.950083 210.872763 
L 90.229421 212.188332 
L 93.50876 213.493426 
L 96.788099 214.788089 
L 100.067438 216.072368 
L 103.346777 217.346311 
L 106.626116 218.609963 
L 109.905455 219.863371 
L 113.184793 221.106582 
L 116.464132 222.339642 
L 119.743471 223.562599 
L 123.02281 224.775497 
L 126.302149 225.978385 
L 129.581488 227.171309 
L 132.860826 228.354316 
L 136.140165 229.527451 
L 139.419504 230.690762 
L 142.698843 231.844296 
L 145.978182 232.988099 
L 149.257521 234.122218 
L 152.53686 235.246699 
L 155.816198 236.361589 
L 159.095537 237.466935 
L 162.374876 238.562783 
L 165.654215 239.64918 
L 168.933554 240.726173 
L 172.212893 241.793808 
L 175.492231 242.852131 
L 178.77157 243.90119 
L 182.050909 244.941031 
L 185.330248 245.9717 
L 188.609587 246.993244 
L 191.888926 248.00571 
L 195.168264 249.009143 
L 198.447603 250.003591 
L 201.726942 250.989099 
L 205.006281 251.965714 
L 208.28562 252.933483 
L 211.564959 253.892451 
L 214.844298 254.842666 
L 218.123636 255.784172 
L 221.402975 256.717017 
L 224.682314 257.641247 
L 227.961653 258.556907 
L 231.240992 259.464045 
L 234.520331 260.362705 
L 237.799669 261.252934 
L 241.079008 262.134778 
L 244.358347 263.008282 
L 247.637686 263.873494 
L 250.917025 264.730457 
L 254.196364 265.579219 
L 257.475702 266.419825 
L 260.755041 267.25232 
L 264.03438 268.076751 
L 267.313719 268.893162 
L 270.593058 269.7016 
L 273.872397 270.502109 
L 277.151736 271.294735 
L 280.431074 272.079523 
L 283.710413 272.856519 
L 286.989752 273.625767 
L 290.269091 274.387314 
L 293.54843 275.141202 
L 296.827769 275.887479 
L 300.107107 276.626189 
L 303.386446 277.357375 
L 306.665785 278.081084 
L 309.945124 278.79736 
L 313.224463 279.506248 
L 316.503802 280.207791 
L 319.78314 280.902035 
L 323.062479 281.589023 
L 326.341818 282.268801 
L 329.621157 282.941411 
L 332.900496 283.606899 
L 336.179835 284.265309 
L 339.459174 284.916683 
L 342.738512 285.561067 
L 346.017851 286.198503 
L 349.29719 286.829036 
L 352.576529 287.452709 
L 355.855868 288.069565 
L 359.135207 288.679649 
L 362.414545 289.283002 
L 365.693884 289.879669 
L 368.973223 290.469692 
L 372.252562 291.053115 
L 375.531901 291.62998 
L 378.81124 292.20033 
L 382.090579 292.764208 
L 385.369917 293.321656 
L 388.649256 293.872717 
L 391.928595 294.417433 
L 395.207934 294.955847 
L 398.487273 295.488 
" style="fill:none;stroke:#1f77b4;stroke-linecap:square;stroke-width:1.5;"/>
   </g>
   <g id="line2d_14">
    <path clip-path="url(#pcdaf9ef18d)" d="M 73.832727 205.491289 
L 77.112066 204.59127 
L 80.391405 203.331243 
L 83.670744 203.871254 
L 86.950083 201.891212 
L 90.229421 201.3512 
L 93.50876 200.45118 
L 96.788099 198.471137 
L 100.067438 198.651141 
L 103.346777 196.131087 
L 106.626116 196.311091 
L 109.905455 195.231067 
L 113.184793 194.511052 
L 116.464132 195.951083 
L 119.743471 190.010954 
L 123.02281 190.190958 
L 126.302149 189.290939 
L 129.581488 189.110935 
L 132.860826 189.650946 
L 136.140165 185.510857 
L 139.419504 185.150849 
L 142.698843 181.370767 
L 145.978182 183.710818 
L 149.257521 183.35081 
L 152.53686 181.730775 
L 155.816198 179.930736 
L 159.095537 178.670709 
L 162.374876 174.170611 
L 165.654215 173.990607 
L 168.933554 179.930736 
L 172.212893 172.190568 
L 175.492231 169.49051 
L 178.77157 170.030522 
L 182.050909 171.290549 
L 185.330248 168.59049 
L 188.609587 170.210526 
L 191.888926 163.01037 
L 195.168264 166.25044 
L 198.447603 164.450401 
L 201.726942 168.050479 
L 205.006281 159.230288 
L 208.28562 159.590296 
L 211.564959 155.63021 
L 214.844298 157.610253 
L 218.123636 153.830171 
L 221.402975 147.350031 
L 224.682314 153.110155 
L 227.961653 154.190179 
L 231.240992 152.210136 
L 234.520331 139.789867 
L 237.799669 146.450011 
L 241.079008 147.710038 
L 244.358347 141.76991 
L 247.637686 146.270007 
L 250.917025 136.189789 
L 254.196364 138.709844 
L 257.475702 136.189789 
L 260.755041 136.369793 
L 264.03438 136.009785 
L 267.313719 128.449621 
L 270.593058 131.689692 
L 273.872397 127.729606 
L 277.151736 123.949524 
L 280.431074 124.309532 
L 283.710413 121.609473 
L 286.989752 119.809434 
L 290.269091 118.009395 
L 293.54843 118.909415 
L 296.827769 115.669345 
L 300.107107 110.449232 
L 303.386446 119.62943 
L 306.665785 112.069267 
L 309.945124 115.129333 
L 313.224463 110.629236 
L 316.503802 99.108986 
L 319.78314 107.929177 
L 323.062479 104.689107 
L 326.341818 102.349056 
L 329.621157 93.348861 
L 332.900496 99.28899 
L 336.179835 94.608889 
L 339.459174 97.128943 
L 342.738512 88.308752 
L 346.017851 90.288795 
L 349.29719 82.908635 
L 352.576529 82.008616 
L 355.855868 82.368624 
L 359.135207 80.388581 
L 362.414545 76.968507 
L 365.693884 72.648413 
L 368.973223 75.168468 
L 372.252562 71.208382 
L 375.531901 66.348277 
L 378.81124 67.4283 
L 382.090579 53.568 
L 385.369917 62.568195 
L 388.649256 53.928008 
L 391.928595 58.068097 
L 395.207934 55.008031 
L 398.487273 53.928008 
" style="fill:none;stroke:#ff7f0e;stroke-linecap:square;stroke-width:1.5;"/>
   </g>
   <g id="patch_3">
    <path d="M 57.6 307.584 
L 57.6 41.472 
" style="fill:none;stroke:#000000;stroke-linecap:square;stroke-linejoin:miter;stroke-width:0.8;"/>
   </g>
   <g id="patch_4">
    <path d="M 414.72 307.584 
L 414.72 41.472 
" style="fill:none;stroke:#000000;stroke-linecap:square;stroke-linejoin:miter;stroke-width:0.8;"/>
   </g>
   <g id="patch_5">
    <path d="M 57.6 307.584 
L 414.72 307.584 
" style="fill:none;stroke:#000000;stroke-linecap:square;stroke-linejoin:miter;stroke-width:0.8;"/>
   </g>
   <g id="patch_6">
    <path d="M 57.6 41.472 
L 414.72 41.472 
" style="fill:none;stroke:#000000;stroke-linecap:square;stroke-linejoin:miter;stroke-width:0.8;"/>
   </g>
   <g id="text_15">
    <text style="font-family:DejaVu Sans;font-size:12px;font-style:normal;font-weight:normal;text-anchor:middle;" transform="rotate(-0, 236.16, 35.472)" x="236.16" y="35.472">Coin Flips for exp(-x)</text>
   </g>
   <g id="legend_1">
    <g id="patch_7">
     <path d="M 64.6 78.82825 
L 288.970312 78.82825 
Q 290.970312 78.82825 290.970312 76.82825 
L 290.970312 48.472 
Q 290.970312 46.472 288.970312 46.472 
L 64.6 46.472 
Q 62.6 46.472 62.6 48.472 
L 62.6 76.82825 
Q 62.6 78.82825 64.6 78.82825 
z
" style="fill:#ffffff;opacity:0.8;stroke:#cccccc;stroke-linejoin:miter;"/>
    </g>
    <g id="line2d_15">
     <path d="M 66.6 54.570437 
L 86.6 54.570437 
" style="fill:none;stroke:#1f77b4;stroke-linecap:square;stroke-width:1.5;"/>
    </g>
    <g id="line2d_16"/>
    <g id="text_16">
     <text style="font-family:DejaVu Sans;font-size:10px;font-style:normal;font-weight:normal;text-anchor:start;" transform="rotate(-0, 94.6, 58.070437)" x="94.6" y="58.070437">Coin Flip Lower Bound (Mendo)</text>
    </g>
    <g id="line2d_17">
     <path d="M 66.6 69.248562 
L 86.6 69.248562 
" style="fill:none;stroke:#ff7f0e;stroke-linecap:square;stroke-width:1.5;"/>
    </g>
    <g id="line2d_18"/>
    <g id="text_17">
     <text style="font-family:DejaVu Sans;font-size:10px;font-style:normal;font-weight:normal;text-anchor:start;" transform="rotate(-0, 94.6, 72.748562)" x="94.6" y="72.748562">Avg. Coins Flipped exp(-x) (Alt. Series)</text>
    </g>
   </g>
  </g>
 </g>
 <defs>
  <clipPath id="pcdaf9ef18d">
   <rect height="266.112" width="357.12" x="57.6" y="41.472"/>
  </clipPath>
 </defs>
</svg>

<svg height="460.8" viewBox="0 0 460.8 345.6" width="614.4" xmlns="http://www.w3.org/2000/svg" xmlns:xlink="http://www.w3.org/1999/xlink"><defs><style>*{stroke-linecap:butt;stroke-linejoin:round}</style></defs><g id="figure_1"><path d="M0 345.6h460.8V0H0z" fill="#fff" id="patch_1"/><g id="axes_1"><path d="M57.6 307.584h357.12V41.472H57.6z" fill="#fff" id="patch_2"/><g id="matplotlib.axis_1"><g id="xtick_1"><g id="line2d_1"><defs><path d="M0 0v3.5" id="m19db7be73c" stroke="#000" stroke-width=".8"/></defs><use x="73.8" xlink:href="#m19db7be73c" y="307.584" stroke="#000" stroke-width=".8"/></g><text x="73.8" y="322.182" font-family="DejaVu Sans" font-size="10" font-weight="400" text-anchor="middle" id="text_1">0.0</text></g><g id="xtick_2"><use x="138.744" xlink:href="#m19db7be73c" y="307.584" stroke="#000" stroke-width=".8" id="line2d_2"/><text x="138.744" y="322.182" font-family="DejaVu Sans" font-size="10" font-weight="400" text-anchor="middle" id="text_2">0.2</text></g><g id="xtick_3"><use x="203.688" xlink:href="#m19db7be73c" y="307.584" stroke="#000" stroke-width=".8" id="line2d_3"/><text x="203.688" y="322.182" font-family="DejaVu Sans" font-size="10" font-weight="400" text-anchor="middle" id="text_3">0.4</text></g><g id="xtick_4"><use x="268.632" xlink:href="#m19db7be73c" y="307.584" stroke="#000" stroke-width=".8" id="line2d_4"/><text x="268.632" y="322.182" font-family="DejaVu Sans" font-size="10" font-weight="400" text-anchor="middle" id="text_4">0.6</text></g><g id="xtick_5"><use x="333.576" xlink:href="#m19db7be73c" y="307.584" stroke="#000" stroke-width=".8" id="line2d_5"/><text x="333.576" y="322.182" font-family="DejaVu Sans" font-size="10" font-weight="400" text-anchor="middle" id="text_5">0.8</text></g><g id="xtick_6"><use x="398.52" xlink:href="#m19db7be73c" y="307.584" stroke="#000" stroke-width=".8" id="line2d_6"/><text x="398.52" y="322.182" font-family="DejaVu Sans" font-size="10" font-weight="400" text-anchor="middle" id="text_6">1.0</text></g><text x="236.16" y="335.861" font-family="DejaVu Sans" font-size="10" font-weight="400" text-anchor="middle" id="text_7">Input Coin&apos;s Heads Probability (λ)</text></g><g id="matplotlib.axis_2"><g id="ytick_1"><g id="line2d_7"><defs><path d="M0 0h-3.5" id="m6ab9852cf1" stroke="#000" stroke-width=".8"/></defs><use x="57.6" xlink:href="#m6ab9852cf1" y="295.493" stroke="#000" stroke-width=".8"/></g><text x="50.6" y="299.292" font-family="DejaVu Sans" font-size="10" font-weight="400" text-anchor="end" id="text_8">0.0</text></g><g id="ytick_2"><use x="57.6" xlink:href="#m6ab9852cf1" y="250.492" stroke="#000" stroke-width=".8" id="line2d_8"/><text x="50.6" y="254.291" font-family="DejaVu Sans" font-size="10" font-weight="400" text-anchor="end" id="text_9">0.5</text></g><g id="ytick_3"><use x="57.6" xlink:href="#m6ab9852cf1" y="205.491" stroke="#000" stroke-width=".8" id="line2d_9"/><text x="50.6" y="209.291" font-family="DejaVu Sans" font-size="10" font-weight="400" text-anchor="end" id="text_10">1.0</text></g><g id="ytick_4"><use x="57.6" xlink:href="#m6ab9852cf1" y="160.49" stroke="#000" stroke-width=".8" id="line2d_10"/><text x="50.6" y="164.29" font-family="DejaVu Sans" font-size="10" font-weight="400" text-anchor="end" id="text_11">1.5</text></g><g id="ytick_5"><use x="57.6" xlink:href="#m6ab9852cf1" y="115.489" stroke="#000" stroke-width=".8" id="line2d_11"/><text x="50.6" y="119.289" font-family="DejaVu Sans" font-size="10" font-weight="400" text-anchor="end" id="text_12">2.0</text></g><g id="ytick_6"><use x="57.6" xlink:href="#m6ab9852cf1" y="70.488" stroke="#000" stroke-width=".8" id="line2d_12"/><text x="50.6" y="74.288" font-family="DejaVu Sans" font-size="10" font-weight="400" text-anchor="end" id="text_13">2.5</text></g><text transform="rotate(-90 28.617 174.528)" x="28.617" y="174.528" font-family="DejaVu Sans" font-size="10" font-weight="400" text-anchor="middle" id="text_14">Coin Flips Needed</text></g><path clip-path="url(#pcdaf9ef18d)" d="M73.833 205.505l3.28 1.358 3.278 1.347 3.28 1.337 3.28 1.326 3.278 1.315 3.28 1.305 3.28 1.295 3.278 1.284 3.28 1.274 3.28 1.264 3.278 1.253 3.28 1.244 3.28 1.233 3.278 1.223 3.28 1.212 3.28 1.203 3.278 1.193 3.28 1.183 3.28 1.173 3.279 1.164 3.279 1.153 3.28 1.144 3.279 1.134 3.279 1.125 3.28 1.115 3.279 1.105 3.279 1.096 3.28 1.086 3.279 1.077 3.279 1.068 3.28 1.058 3.279 1.05 3.279 1.039 3.28 1.03 3.279 1.022 3.279 1.013 3.28 1.003 3.279.995 3.279.985 3.28.977 3.279.967 3.279.96 3.28.95 3.279.941 3.279.933 3.28.924 3.279.916 3.279.907 3.28.899 3.279.89 3.279.882 3.28.873 3.279.865 3.279.857 3.28.85 3.279.84 3.279.832 3.28.825 3.279.816 3.28.809 3.278.8 3.28.793 3.28.785 3.278.777 3.28.769 3.28.761 3.278.754 3.28.746 3.28.74 3.278.73 3.28.724 3.28.716 3.278.71 3.28.7 3.28.695 3.278.687 3.28.68 3.28.672 3.278.666 3.28.658 3.28.652 3.279.644 3.279.638 3.28.63 3.279.624 3.279.617 3.28.61 3.279.603 3.279.597 3.28.59 3.279.583 3.279.577 3.28.57 3.279.564 3.279.558 3.28.55 3.279.545 3.279.539 3.28.532" fill="none" stroke="#1f77b4" stroke-linecap="square" stroke-width="1.5" id="line2d_13"/><path clip-path="url(#pcdaf9ef18d)" d="M73.833 205.491l3.28-.9 3.278-1.26 3.28.54 3.28-1.98 3.278-.54 3.28-.9 3.28-1.98 3.278.18 3.28-2.52 3.28.18 3.278-1.08 3.28-.72 3.28 1.44 3.278-5.94 3.28.18 3.28-.9 3.278-.18 3.28.54 3.28-4.14 3.279-.36 3.279-3.78 3.28 2.34 3.279-.36 3.279-1.62 3.28-1.8 3.279-1.26 3.279-4.5 3.28-.18 3.279 5.94 3.279-7.74 3.28-2.7 3.279.54 3.279 1.26 3.28-2.7 3.279 1.62 3.279-7.2 3.28 3.24 3.279-1.8 3.279 3.6 3.28-8.82 3.279.36 3.279-3.96 3.28 1.98 3.279-3.78 3.279-6.481 3.28 5.76 3.279 1.08 3.279-1.98 3.28-12.42 3.279 6.66 3.279 1.26 3.28-5.94 3.279 4.5 3.279-10.08 3.28 2.52 3.279-2.52 3.279.18 3.28-.36 3.279-7.56 3.28 3.24 3.278-3.96 3.28-3.78 3.28.36 3.278-2.7 3.28-1.8 3.28-1.8 3.278.9 3.28-3.24 3.28-5.22 3.278 9.18 3.28-7.56 3.28 3.06 3.278-4.5 3.28-11.521 3.28 8.82 3.278-3.24 3.28-2.34 3.28-9 3.278 5.94 3.28-4.68 3.28 2.52 3.279-8.82 3.279 1.98 3.28-7.38 3.279-.9 3.279.36 3.28-1.98 3.279-3.42 3.279-4.32 3.28 2.52 3.279-3.96 3.279-4.86 3.28 1.08 3.279-13.861 3.279 9 3.28-8.64 3.279 4.14 3.279-3.06 3.28-1.08" fill="none" stroke="#ff7f0e" stroke-linecap="square" stroke-width="1.5" id="line2d_14"/><path d="M57.6 307.584V41.472" fill="none" stroke="#000" stroke-linecap="square" stroke-width=".8" id="patch_3"/><path d="M414.72 307.584V41.472" fill="none" stroke="#000" stroke-linecap="square" stroke-width=".8" id="patch_4"/><path d="M57.6 307.584h357.12" fill="none" stroke="#000" stroke-linecap="square" stroke-width=".8" id="patch_5"/><path d="M57.6 41.472h357.12" fill="none" stroke="#000" stroke-linecap="square" stroke-width=".8" id="patch_6"/><text x="236.16" y="35.472" font-family="DejaVu Sans" font-size="12" font-weight="400" text-anchor="middle" id="text_15">Coin Flips for exp(-x)</text><g id="legend_1"><path d="M64.6 78.828h224.37q2 0 2-2V48.472q0-2-2-2H64.6q-2 0-2 2v28.356q0 2 2 2z" fill="#fff" opacity=".8" stroke="#ccc" id="patch_7"/><path d="M66.6 54.57h20" fill="none" stroke="#1f77b4" stroke-linecap="square" stroke-width="1.5" id="line2d_15"/><text x="94.6" y="58.07" font-family="DejaVu Sans" font-size="10" font-weight="400" id="text_16">Coin Flip Lower Bound (Mendo)</text><path d="M66.6 69.249h20" fill="none" stroke="#ff7f0e" stroke-linecap="square" stroke-width="1.5" id="line2d_17"/><text x="94.6" y="72.749" font-family="DejaVu Sans" font-size="10" font-weight="400" id="text_17">Avg. Coins Flipped exp(-x) (Alt. Series)</text></g></g></g><defs><clipPath id="pcdaf9ef18d"><path d="M57.6 41.472h357.12v266.112H57.6z"/></clipPath></defs></svg>
